public/img/advanced-equipment.svg

<svg width="45" height="41" viewBox="0 0 45 41" fill="none" xmlns="http://www.w3.org/2000/svg">
<path d="M3.98438 0.15625C4.14062 0 4.375 0 4.60938 0.078125L15.7031 5H21.875C23.5938 5 25.1562 5.85938 26.25 7.10938V3.75C26.25 3.4375 26.4844 3.125 26.875 3.125C27.1875 3.125 27.5 3.4375 27.5 3.75V10.625V13.125H31.25V6.25C31.25 5.9375 31.4844 5.625 31.875 5.625C32.1875 5.625 32.5 5.9375 32.5 6.25V13.125H36.25V11.875C36.25 11.6406 36.3281 11.4062 36.5625 11.3281L44.0625 8.20312C44.2969 8.125 44.5312 8.125 44.6875 8.28125C44.8438 8.35938 45 8.59375 45 8.75V18.75C45 18.9844 44.8438 19.2188 44.6875 19.2969C44.5312 19.4531 44.2969 19.4531 44.0625 19.375L36.5625 16.25C36.3281 16.1719 36.25 15.9375 36.25 15.625V14.375H32.5V21.25C32.5 21.6406 32.1875 21.875 31.875 21.875C31.4844 21.875 31.25 21.6406 31.25 21.25V14.375H27.5V16.875V23.75C27.5 24.1406 27.1875 24.375 26.875 24.375C26.4844 24.375 26.25 24.1406 26.25 23.75V20.4688C25.1562 21.7188 23.5938 22.5 21.875 22.5H21.4844L13.4375 38.6719C12.8125 39.9219 11.3281 40.3906 10.0781 39.7656L3.82812 36.6406C2.57812 36.0156 2.10938 34.5312 2.73438 33.2812L8.125 22.5C3.59375 22.1875 0 18.4375 0 13.75C0 10.7812 1.48438 8.20312 3.75 6.64062V0.625C3.75 0.46875 3.82812 0.234375 3.98438 0.15625ZM37.5 13.75V15.2344L43.75 17.8125V9.6875L37.5 12.3438V13.75ZM15.625 6.25H15.5469H8.75C4.60938 6.25 1.25 9.60938 1.25 13.75C1.25 17.8906 4.60938 21.25 8.75 21.25H21.875C24.2188 21.25 26.25 19.2969 26.25 16.875V13.75V10.625C26.25 8.28125 24.2188 6.25 21.875 6.25H15.625ZM5 1.64062V5.85938C6.09375 5.3125 7.34375 5 8.75 5H12.6562L5 1.64062ZM9.53125 22.5L3.82812 33.8281C3.51562 34.4531 3.82812 35.2344 4.375 35.5469L10.625 38.6719C11.25 38.9844 12.0312 38.6719 12.3438 38.125L20.0781 22.5H9.53125ZM8.75 12.5C9.375 12.5 10 13.125 10 13.75C10 14.4531 9.375 15 8.75 15C8.04688 15 7.5 14.4531 7.5 13.75C7.5 13.125 8.04688 12.5 8.75 12.5ZM12.5 13.75C12.5 13.125 13.0469 12.5 13.75 12.5C14.375 12.5 15 13.125 15 13.75C15 14.4531 14.375 15 13.75 15C13.0469 15 12.5 14.4531 12.5 13.75ZM18.75 12.5C19.375 12.5 20 13.125 20 13.75C20 14.4531 19.375 15 18.75 15C18.0469 15 17.5 14.4531 17.5 13.75C17.5 13.125 18.0469 12.5 18.75 12.5Z" fill="#1A75BB"/>
</svg>

<svg xmlns="http://www.w3.org/2000/svg" width="45" height="41" fill="none"><path fill="#1A75BB" d="M3.984.156C4.141 0 4.375 0 4.61.078L15.703 5h6.172c1.719 0 3.281.86 4.375 2.11V3.75c0-.312.234-.625.625-.625.313 0 .625.313.625.625v9.375h3.75V6.25c0-.312.234-.625.625-.625.313 0 .625.313.625.625v6.875h3.75v-1.25c0-.234.078-.469.313-.547l7.5-3.125c.234-.078.468-.078.624.078.157.078.313.313.313.469v10c0 .234-.156.469-.312.547-.157.156-.391.156-.626.078l-7.5-3.125c-.234-.078-.312-.312-.312-.625v-1.25H32.5v6.875c0 .39-.312.625-.625.625-.39 0-.625-.234-.625-.625v-6.875H27.5v9.375c0 .39-.312.625-.625.625-.39 0-.625-.234-.625-.625v-3.281c-1.094 1.25-2.656 2.031-4.375 2.031h-.39l-8.047 16.172c-.626 1.25-2.11 1.719-3.36 1.094l-6.25-3.125c-1.25-.625-1.719-2.11-1.094-3.36L8.125 22.5A8.727 8.727 0 0 1 0 13.75c0-2.969 1.484-5.547 3.75-7.11V.626c0-.156.078-.39.234-.469M37.5 13.75v1.484l6.25 2.579V9.688l-6.25 2.656zm-21.875-7.5H8.75c-4.14 0-7.5 3.36-7.5 7.5s3.36 7.5 7.5 7.5h13.125c2.344 0 4.375-1.953 4.375-4.375v-6.25c0-2.344-2.031-4.375-4.375-4.375zM5 1.64v4.22C6.094 5.311 7.344 5 8.75 5h3.906zM9.531 22.5 3.828 33.828c-.312.625 0 1.406.547 1.719l6.25 3.125c.625.312 1.406 0 1.719-.547L20.078 22.5zm-.781-10c.625 0 1.25.625 1.25 1.25 0 .703-.625 1.25-1.25 1.25-.703 0-1.25-.547-1.25-1.25 0-.625.547-1.25 1.25-1.25m3.75 1.25c0-.625.547-1.25 1.25-1.25.625 0 1.25.625 1.25 1.25 0 .703-.625 1.25-1.25 1.25-.703 0-1.25-.547-1.25-1.25m6.25-1.25c.625 0 1.25.625 1.25 1.25 0 .703-.625 1.25-1.25 1.25-.703 0-1.25-.547-1.25-1.25 0-.625.547-1.25 1.25-1.25"/></svg>
